X:1
T:Title
%%score [ ( 1 2 ) ( 3 4 ) ]
L:1/8
Q:1/4=120
M:4/4
K:C
V:1 treble nm="Midi_74"
V:2 treble 
V:3 bass nm="Midi_74"
V:4 bass 
V:1
 G8 | A4 B4 | c8 || d8 | e4 c4 | c4 B4 |"^Richard Woodward\n(1743-1777)" c8 |] %7
V:2
 E8 | F4 F4 | E8 || G8 | G4 A4 | G4 G4 | G8 |] %7
V:3
 C8 | C4 D4 | C8 || B,8 | C4 F4 | D4 D4 | E8 |] %7
V:4
 C,8 | F,4 D,4 | A,8 || G,8 | C4 F,4 | G,4 G,4 | C,8 |] %7

